X:4
T:Bird's Nest, The
R:reel
S:Chris Norman
D:Altan: Harvest Storm
O:Cape Breton
Z:id:hn-reel-461
M:C|
L:1/8
K:Ador
cA ~A2 GABG|A2AB cded|cA ~A2 GABG|1 Aage d2 de:|2 Aage d2 cd||!
eaag eg d2|ecgc acgc| eaag edcd|eage d2 cd|!
a2 ag egcd|ecgc acgc| gage dcde|gage d2 ed||
